X: 164
T: The Highland Wedding
%R: reel
M: C|
L: 1/8
Z: 2011,2014 John Chambers <jc:trillian.mit.edu>
B: Chas & Sam Thompson "Twenty Four Country Dances for the Year 1771", London 1771, p.82
K: G
|: Bg-ge dBAG | E>DEG E>DEG | Bg-ge dBAG | EDEF G2G,2 :|
|: gege dedB | gege d2B2 | geaf gede | dBAG A2DA |
Bg-ge dBAG | E>DEG E>DEG | Bg-ge dBAG | E>DEF G2G,2 :|
% - - - - - - - - - - - - - - - - - - - - - - - - -
%%begintext align
%% Foot it all 4, half right and left .|. the same back
%% again :|. lead thro' the bottom, the 2d Cu. follow and foot
%% it .|: cross over and turn, right and left :|:
%%endtext
% - - - - - - - - - - - - - - - - - - - - - - - - -

%%sep 1 1 500
%%sep 1 1 500
